X:1
T:James Gibb editions
T:O perfect love - Barnby
%%score [ ( 1 2 ) ( 3 4 ) ]
L:1/8
Q:1/4=100
M:4/4
K:Eb
V:1 treble nm="Midi_74"
V:2 treble 
V:3 bass nm="Midi_74"
V:4 bass 
V:1
"^O perfect love (11 10. 11 10.)""^Joseph Barnby\n(1838-96)""^O perfect love""^Dorothy Frances Gurney\n(1858-1932)" E4 G2 B2 | %1
 B4 B4 | B2 B2 e2 d2 | d4 c4 || F4 G2 A2 | B4 G4 | E2 E2 G2 F2 | D8 || E4 G2 B2 | B4 B4 | %10
 B2 B2 e2 d2 | d4 c4 || c4 B2 A2 | G2 B2 A2 F2 | C4 D4 | E8 |] %16
V:2
 B,4 E2 E2 | D4 D4 | E2 E2 E2 E2 | E4 E4 || C4 D2 D2 | E4 D4 | C2 C2 C2 C2 | B,8 || B,4 E2 E2 | %9
 D4 D4 | E2 E2 G2 F2 | F4 E4 || A4 G2 F2 | E2 =E2 F2 C2 | C4 B,4 | B,8 |] %16
V:3
 G,4 B,2 B,2 | A,4 A,4 | B,2 G,2 A,2 B,2 | A,4 A,4 || C4 B,2 B,2 | B,4 =B,4 | C2 G,2 B,2 A,2 | %7
 F,8 || %8
"^1. O perfect love, all human thought transcending,\nLowly we kneel in prayer before thy throne,\nThat theirs may be the love which knows no ending,\nWhom Thou for evermore dost join in one.\n\n2. O perfect life, be Thou their full assurance\nOf tender charity and steadfast faith,\nOf patient hope, and quiet brave endurance,\nWith childlike trust that fears not pain nor death.\n\n3. Grant them the joy which brightens earthly sorrow,\nGrant them the peace which calms all earthly strife;\nAnd to life's day the glorious unknown morrow\nThat dawns upon eternal love and life." G,4 B,2 B,2 | %9
 A,4 A,4 | B,2 B,2 =B,2 B,2 | =B,4 C4 || C4 D2 D2 | E2 _D2 C2 A,2 | A,4 A,4 | G,8 |] %16
V:4
 E,4 E,2 G,2 | F,4 F,4 | G,2 E,2 F,2 G,2 | A,4 A,4 || A,4 A,2 A,2 | G,4 G,4 | C,2 C,2 F,,2 F,,2 | %7
 B,,8 || E,4 E,2 G,2 | F,6 A,2 | G,2 G,2 G,2 G,2 | A,4 A,4 || A,,4 B,,2 B,,2 | C,2 G,,2 A,,2 A,,2 | %14
 B,,4 B,,4 | E,8 |] %16

